src/assets/svgs/s1.svg

<svg width="48" height="48" viewBox="0 0 48 48" fill="none" xmlns="http://www.w3.org/2000/svg">
<g id="briefcase">
<path id="Vector" d="M44.2024 11.7027H35.2286V8.31684C35.2286 5.38511 32.8173 3 29.8533 3H17.1469C14.1828 3 11.7713 5.38502 11.7713 8.31684V11.7027H2.79743C1.25492 11.7027 0 12.9441 0 14.4699V21.4464C0 23.0504 0.655761 24.4439 1.99498 25.6697V40.653C1.99498 43.0499 3.96655 45 6.38984 45H40.61C43.0333 45 45.0048 43.0499 45.0048 40.653V25.666C46.3277 24.4475 47 23.0307 47 21.4464V14.4699C46.9999 12.9441 45.745 11.7027 44.2024 11.7027ZM14.0094 8.31684C14.0094 6.60581 15.4169 5.21374 17.1469 5.21374H29.8533C31.5832 5.21374 32.9905 6.60581 32.9905 8.31684V11.7027H31.4607V8.31684C31.4607 7.4402 30.7397 6.72701 29.8534 6.72701H17.1469C16.2605 6.72701 15.5393 7.4402 15.5393 8.31684V11.7027H14.0095V8.31684H14.0094ZM29.2225 11.7027H17.7774V8.94065H29.2225V11.7027ZM2.23809 14.4699C2.23809 14.1647 2.48894 13.9165 2.79743 13.9165H44.2024C44.5109 13.9165 44.7618 14.1647 44.7618 14.4699V21.4464C44.7618 22.522 44.2579 23.4322 43.1757 24.3109C42.9104 24.5263 42.6049 24.7426 42.2676 24.9536C40.0453 26.3443 35.1645 27.3869 29.0763 27.7884V24.7305C29.0763 24.1192 28.5753 23.6236 27.9573 23.6236H19.0426C18.4246 23.6236 17.9236 24.1192 17.9236 24.7305V27.7913C11.8429 27.3928 6.96214 26.3492 4.73207 24.9534C3.03056 23.8891 2.23809 22.7747 2.23809 21.4463V14.4699ZM26.8383 25.8373V32.4412H20.1617V25.8373H26.8383ZM40.61 42.7862H6.38984C5.20058 42.7862 4.23307 41.8292 4.23307 40.6529V27.2195C7.80945 29.0664 13.9065 29.7541 17.9237 30.0098V33.548C17.9237 34.1592 18.4247 34.6548 19.0427 34.6548H27.9574C28.5754 34.6548 29.0764 34.1592 29.0764 33.548V30.0069C33.0971 29.7494 39.1982 29.0602 42.7668 27.2193V40.6528C42.7667 41.8292 41.7991 42.7862 40.61 42.7862Z" fill="#042925"/>
</g>
</svg>

<svg width="48" height="48" fill="none" xmlns="http://www.w3.org/2000/svg"><path d="M44.202 11.703H35.23V8.317C35.229 5.385 32.817 3 29.853 3H17.147c-2.964 0-5.376 2.385-5.376 5.317v3.386H2.797C1.255 11.703 0 12.944 0 14.47v6.976c0 1.604.656 2.998 1.995 4.224v14.983C1.995 43.05 3.967 45 6.39 45h34.22c2.423 0 4.395-1.95 4.395-4.347V25.666C46.328 24.448 47 23.031 47 21.446V14.47c0-1.526-1.255-2.767-2.798-2.767ZM14.01 8.317c0-1.711 1.408-3.103 3.138-3.103h12.706c1.73 0 3.137 1.392 3.137 3.103v3.386h-1.53V8.317a1.6 1.6 0 0 0-1.607-1.59H17.147a1.6 1.6 0 0 0-1.608 1.59v3.386h-1.53V8.317Zm15.213 3.386H17.777V8.94h11.445v2.762ZM2.238 14.47c0-.305.25-.554.56-.554h41.404c.309 0 .56.249.56.554v6.976c0 1.076-.504 1.986-1.586 2.865-.266.215-.571.432-.908.643-2.223 1.39-7.104 2.433-13.192 2.834V24.73c0-.61-.5-1.106-1.119-1.106h-8.914c-.618 0-1.12.495-1.12 1.107v3.06c-6.08-.398-10.96-1.442-13.19-2.838-1.702-1.064-2.495-2.178-2.495-3.507V14.47Zm24.6 11.367v6.604h-6.676v-6.604h6.676Zm13.772 16.95H6.39c-1.19 0-2.157-.958-2.157-2.134V27.22c3.576 1.846 9.674 2.534 13.69 2.79v3.538c0 .611.502 1.107 1.12 1.107h8.914c.618 0 1.12-.496 1.12-1.107v-3.541c4.02-.258 10.121-.947 13.69-2.788v13.434c0 1.176-.968 2.133-2.157 2.133Z" fill="#042925"/></svg>
